resources/images/koszt.svg

<svg width="24" height="24" viewBox="0 0 24 24" fill="none" xmlns="http://www.w3.org/2000/svg">
<g clip-path="url(#clip0_1742_100)">
<path d="M23.5097 8.28215L22.5481 6.60389C22.2918 6.15661 21.7224 6 21.2734 6.25378C21.1317 6.3338 20.9771 6.37439 20.8136 6.37439C20.2966 6.37439 19.8761 5.95383 19.8761 5.43684C19.8761 5.10487 20.0549 4.79428 20.3428 4.62637C20.7875 4.36687 20.9398 3.7972 20.6837 3.35044L19.834 1.86745C19.3413 1.00767 18.5433 0.391171 17.587 0.131624C16.6308 -0.12797 15.6307 0.000514254 14.771 0.493405L1.86511 7.8929C0.717281 8.55098 0.002625 9.78262 0 11.109V14.6716C0 15.1895 0.419719 15.6092 0.937547 15.6092C1.45453 15.6092 1.87509 16.0297 1.87509 16.5467C1.87509 17.0637 1.45453 17.4843 0.937547 17.4843C0.419719 17.4843 0 17.904 0 18.4218V20.25C0 22.3179 1.68234 24.0002 3.75019 24.0002H18.8447C20.9125 24.0002 22.5949 22.3179 22.5949 20.25V18.4218C22.5949 17.904 22.1752 17.4843 21.6573 17.4843C21.1403 17.4843 20.7198 17.0637 20.7198 16.5467C20.7198 16.0297 21.1403 15.6092 21.6573 15.6092C22.1752 15.6092 22.5949 15.1895 22.5949 14.6716V13.0351C24.0097 11.9155 24.4333 9.894 23.5097 8.28215ZM22.0152 10.7505C21.3501 9.69942 20.178 8.99948 18.8447 8.99948H16.5148C16.6762 8.71983 16.6894 8.36461 16.5173 8.06433C16.2598 7.61512 15.6868 7.45964 15.2376 7.71717C14.7884 7.9747 14.6329 8.54756 14.8905 8.99676C14.891 8.9977 14.8916 8.99854 14.8922 8.99948H9.89114C9.37331 8.99948 8.95359 9.4192 8.95359 9.93703C8.95359 10.4549 9.37331 10.8746 9.89114 10.8746H18.8447C19.8787 10.8746 20.7198 11.7157 20.7198 12.7497V13.8947C19.6285 14.2817 18.8447 15.3244 18.8447 16.5467C18.8447 17.769 19.6285 18.8117 20.7198 19.1987V20.25C20.7198 21.284 19.8787 22.1251 18.8447 22.1251H3.75019C2.71627 22.1251 1.87509 21.284 1.87509 20.25V19.1987C2.96644 18.8118 3.75019 17.769 3.75019 16.5467C3.75019 15.3244 2.96644 14.2817 1.87509 13.8947V12.7497C1.87509 11.7157 2.71627 10.8746 3.75019 10.8746H5.20341C5.72123 10.8746 6.14095 10.4549 6.14095 9.93703C6.14095 9.4192 5.72123 8.99948 5.20341 8.99948H3.75019C3.7343 8.99948 3.71864 9.00051 3.7028 9.0007L15.7036 2.12006C16.1287 1.8764 16.6231 1.8128 17.0959 1.94119C17.5688 2.06958 17.9634 2.3744 18.207 2.79965L18.6736 3.61387C18.2468 4.11619 18.0009 4.76151 18.0009 5.43679C18.0009 6.9877 19.2626 8.24944 20.8135 8.24944C20.9787 8.24944 21.1432 8.23476 21.3049 8.20603L21.8827 9.21431C22.161 9.70017 22.1917 10.261 22.0152 10.7505Z" fill="#0296D8"/>
<path d="M15.5625 14.1559C16.0803 14.1559 16.5001 13.7361 16.5001 13.2183C16.5001 12.7005 16.0803 12.2808 15.5625 12.2808C15.0448 12.2808 14.625 12.7005 14.625 13.2183C14.625 13.7361 15.0448 14.1559 15.5625 14.1559Z" fill="#0296D8"/>
<path d="M15.5625 17.4371C16.0803 17.4371 16.5001 17.0174 16.5001 16.4996C16.5001 15.9818 16.0803 15.562 15.5625 15.562C15.0448 15.562 14.625 15.9818 14.625 16.4996C14.625 17.0174 15.0448 17.4371 15.5625 17.4371Z" fill="#0296D8"/>
<path d="M15.5625 20.7188C16.0803 20.7188 16.5001 20.2991 16.5001 19.7813C16.5001 19.2635 16.0803 18.8438 15.5625 18.8438C15.0448 18.8438 14.625 19.2635 14.625 19.7813C14.625 20.2991 15.0448 20.7188 15.5625 20.7188Z" fill="#0296D8"/>
<path d="M14.0625 6.60849C14.5803 6.60849 15.0001 6.18874 15.0001 5.67095C15.0001 5.15315 14.5803 4.7334 14.0625 4.7334C13.5448 4.7334 13.125 5.15315 13.125 5.67095C13.125 6.18874 13.5448 6.60849 14.0625 6.60849Z" fill="#0296D8"/>
</g>
<defs>
<clipPath id="clip0_1742_100">
<rect width="24" height="24" fill="white"/>
</clipPath>
</defs>
</svg>

<svg width="24" height="24" fill="none" xmlns="http://www.w3.org/2000/svg"><g clip-path="url(#clip0_1742_100)" fill="#0296D8"><path d="m23.51 8.282-.962-1.678a.937.937 0 0 0-1.275-.35.939.939 0 0 1-.93-1.627.938.938 0 0 0 .34-1.277l-.849-1.483A3.686 3.686 0 0 0 17.587.132a3.684 3.684 0 0 0-2.816.361l-12.906 7.4A3.723 3.723 0 0 0 0 11.109v3.563c0 .518.42.937.938.937a.939.939 0 0 1 0 1.875.937.937 0 0 0-.938.938v1.828A3.754 3.754 0 0 0 3.75 24h15.095a3.754 3.754 0 0 0 3.75-3.75v-1.828a.937.937 0 0 0-.938-.938.939.939 0 0 1 0-1.875c.518 0 .938-.42.938-.937v-1.637a3.716 3.716 0 0 0 .915-4.753Zm-1.495 2.469a3.75 3.75 0 0 0-3.17-1.752h-2.33a.936.936 0 0 0-1.277-1.282.937.937 0 0 0-.348 1.28l.002.002h-5a.938.938 0 1 0 0 1.876h8.953c1.034 0 1.875.84 1.875 1.875v1.145a2.818 2.818 0 0 0-1.875 2.652c0 1.222.784 2.265 1.875 2.652v1.051a1.877 1.877 0 0 1-1.875 1.875H3.75a1.877 1.877 0 0 1-1.875-1.875v-1.051a2.818 2.818 0 0 0 1.875-2.652 2.818 2.818 0 0 0-1.875-2.652V12.75c0-1.034.841-1.875 1.875-1.875h1.453a.937.937 0 1 0 0-1.876H3.75l-.047.002 12-6.88c.426-.245.92-.308 1.393-.18.473.129.867.433 1.111.859l.467.814A2.82 2.82 0 0 0 18 5.437a2.816 2.816 0 0 0 3.304 2.769l.578 1.008c.278.486.309 1.047.132 1.537Z"/><path d="M15.563 14.156a.938.938 0 1 0 0-1.875.938.938 0 0 0 0 1.875ZM15.563 17.437a.938.938 0 1 0 0-1.875.938.938 0 0 0 0 1.875ZM15.563 20.719a.938.938 0 1 0 0-1.875.938.938 0 0 0 0 1.875ZM14.063 6.608a.938.938 0 1 0 0-1.875.938.938 0 0 0 0 1.875Z"/></g></svg>
